X:1
T:Standin In The Need of Prayer
T:Turn Back Paraohs Army
T:Copyright 1918 by Homer A. Rodeheaver
T:Rodeheaver's Plantation Melodies
Z:Rodeheaver's Plantation Melodies
%%score [ 1 2 3 4 ]
L:1/8
Q:1/4=80
M:2/4
K:Eb
V:1 treble nm="Soprano" snm="S."
V:2 treble nm="Alto" snm="A."
V:3 bass nm="Tenor" snm="T."
V:4 bass nm="Bass" snm="B."
V:1
"^SOLO" (B>A) | G>G G>G | G B2 G | AA AA | (A c2) |"^CHORUS. Faster"[Q:1/4=100] A | GB BB | %7
w: Gwine to|write to Mas- sa|Je- sus, To|send some val- iant|sol- diers,|||
 BG F>E | E2 |:!>(! e2!>)! | cc cc | cc c>d | e4 | B3 A | GB BB | BG F>E | E2!D.C.! :| %17
w: ||||||||||
V:2
 z2 | z4 | z4 | z4 | z2 z | F | EG GG | GE D>E | E2 |: E2 | AA AA | AA A>A | G4 | G3 F | EG GG | %15
w: |||||To|turn back Pha- raoh's|ar- my, Ha- le-|lu!|To|turn back Pha- raoh's|ar- my, Hal- le-|lu-|jah! To|turn back Pha- raoh's|
 GE D>E | E2 :| %17
w: ar- my, Hal- le-|lu!|
V:3
 z2 | z4 | z4 | z4 | z2 z | B, | B,E DC | EB, A,>G, | F,2 |: E2 | EE EE | EE E>C | B,4 | E3 B, | %14
 B,E DC | EB, A,>G, | G,2 :| %17
V:4
 z2 | z4 | z4 | z4 | z2 z | B,, | E,E, E,E, | E,E, B,,>E, | E,2 |: E,2 | A,A, A,A, | %11
"_1. Gwine to write to Massa Jesus, To send some valiant soldiers,\n2. If you want your souls converted, You'd better be a-praying,\n3. You say you are a soldier, -Fighting for your Savior,\n4. When the children were in bondage, They cried unto the Lord,\n5. When Moses smote the water, The children all passed over," A,A, A,>A, | %12
 E,4 | E,3 E, | E,E, E,E, | E,E, B,,>E, | E,2 :| %17

